HTML/img/Rhythms/Rhythm_EighthTriplet.svg

<svg width="612" height="792" viewBox="0 0 40 40" xmlns="http://www.w3.org/2000/svg"><path class="Stem" fill="none" stroke="#000" stroke-width=".65" stroke-linecap="round" stroke-linejoin="bevel" d="M24.866 13.567v14.061M17.034 13.567v14.061M9.202 13.567v14.061"/><path class="Note" d="M28.936 9.874c.625 0 1.153.162 1.582.488.404.351.606.794.606 1.328 0 .898-.463 1.738-1.387 2.52-.938.781-1.94 1.171-3.008 1.171-.625 0-1.152-.162-1.582-.488a1.684 1.684 0 01-.605-1.328c0-.898.468-1.738 1.406-2.52.911-.781 1.907-1.171 2.988-1.171M21.103 9.874c.625 0 1.152.162 1.582.488.405.351.605.794.605 1.328 0 .898-.462 1.738-1.386 2.52-.938.781-1.939 1.171-3.008 1.171-.625 0-1.151-.162-1.582-.488a1.685 1.685 0 01-.606-1.328c0-.898.469-1.738 1.408-2.52.91-.781 1.906-1.171 2.987-1.171M13.271 9.874c.625 0 1.152.162 1.582.488.404.351.605.794.605 1.328 0 .898-.463 1.738-1.386 2.52-.939.781-1.94 1.171-3.008 1.171-.625 0-1.153-.162-1.582-.488a1.682 1.682 0 01-.606-1.328c0-.898.468-1.738 1.407-2.52.91-.781 1.906-1.171 2.988-1.171"/><path class="Beam" fill-rule="evenodd" d="M8.876 26.378h16.315v2.5H8.876v-2.5"/><path class="Tuplet" d="M15.608 34.52c1.594-.26 2.391-.813 2.391-1.66 0-.273-.082-.493-.245-.66-.164-.167-.379-.25-.646-.25-.406 0-.78.223-1.12.67l-.16-.05c.167-.326.395-.584.685-.775.29-.19.609-.285.956-.285.399 0 .733.122 1 .366s.399.552.399.924c0 .34-.108.613-.325.82-.216.207-.628.427-1.234.66v.03c.639.293.959.79.959 1.49 0 .693-.256 1.293-.769 1.8-.513.507-1.186.76-2.021.76-.746 0-1.12-.197-1.12-.59 0-.26.147-.39.44-.39.167 0 .391.1.671.3.28.2.509.3.69.3.359 0 .668-.152.924-.455.257-.303.386-.698.386-1.185 0-.627-.156-1.06-.47-1.3-.314-.24-.776-.36-1.391-.36v-.16"/></svg>

<?xml version="1.0" encoding="utf-8"?>
<svg width="612px" height="792px" viewBox="0 0 40 40" xmlns="http://www.w3.org/2000/svg">
  <title>Rhythm Reference</title>
  <desc>Generated by MuseScore 2.0.3</desc>
  <polyline class="Stem" fill="none" stroke="#000000" stroke-width="0.65" stroke-linecap="round" stroke-linejoin="bevel" points="24.866 13.567 24.866 27.628"/>
  <polyline class="Stem" fill="none" stroke="#000000" stroke-width="0.65" stroke-linecap="round" stroke-linejoin="bevel" points="17.034 13.567 17.034 27.628"/>
  <polyline class="Stem" fill="none" stroke="#000000" stroke-width="0.65" stroke-linecap="round" stroke-linejoin="bevel" points="9.202 13.567 9.202 27.628"/>
  <path class="Note" d="M 28.936 9.874 C 29.561 9.874 30.089 10.036 30.518 10.362 C 30.922 10.713 31.124 11.156 31.124 11.69 C 31.124 12.588 30.661 13.428 29.737 14.21 C 28.799 14.991 27.797 15.381 26.729 15.381 C 26.104 15.381 25.577 15.219 25.147 14.893 C 24.743 14.542 24.542 14.099 24.542 13.565 C 24.542 12.667 25.01 11.827 25.948 11.045 C 26.859 10.264 27.855 9.874 28.936 9.874"/>
  <path class="Note" d="M 21.103 9.874 C 21.728 9.874 22.255 10.036 22.685 10.362 C 23.09 10.713 23.29 11.156 23.29 11.69 C 23.29 12.588 22.828 13.428 21.904 14.21 C 20.966 14.991 19.965 15.381 18.896 15.381 C 18.271 15.381 17.745 15.219 17.314 14.893 C 16.91 14.542 16.708 14.099 16.708 13.565 C 16.708 12.667 17.177 11.827 18.116 11.045 C 19.026 10.264 20.022 9.874 21.103 9.874"/>
  <path class="Note" d="M 13.271 9.874 C 13.896 9.874 14.423 10.036 14.853 10.362 C 15.257 10.713 15.458 11.156 15.458 11.69 C 15.458 12.588 14.995 13.428 14.072 14.21 C 13.133 14.991 12.132 15.381 11.064 15.381 C 10.439 15.381 9.911 15.219 9.482 14.893 C 9.077 14.542 8.876 14.099 8.876 13.565 C 8.876 12.667 9.344 11.827 10.283 11.045 C 11.193 10.264 12.189 9.874 13.271 9.874"/>
  <path class="Beam" fill-rule="evenodd" d="M 8.876 26.378 L 25.191 26.378 L 25.191 28.878 L 8.876 28.878 L 8.876 26.378"/>
  <path class="Tuplet" d="M 15.608 34.52 C 17.202 34.26 17.999 33.707 17.999 32.86 C 17.999 32.587 17.917 32.367 17.754 32.2 C 17.59 32.033 17.375 31.95 17.108 31.95 C 16.702 31.95 16.328 32.173 15.988 32.62 L 15.828 32.57 C 15.995 32.244 16.223 31.986 16.513 31.795 C 16.803 31.605 17.122 31.51 17.469 31.51 C 17.868 31.51 18.202 31.632 18.469 31.876 C 18.736 32.12 18.868 32.428 18.868 32.8 C 18.868 33.14 18.76 33.413 18.543 33.62 C 18.327 33.827 17.915 34.047 17.309 34.28 L 17.309 34.31 C 17.948 34.603 18.268 35.1 18.268 35.8 C 18.268 36.493 18.012 37.093 17.499 37.6 C 16.986 38.107 16.313 38.36 15.478 38.36 C 14.732 38.36 14.358 38.163 14.358 37.77 C 14.358 37.51 14.505 37.38 14.798 37.38 C 14.965 37.38 15.189 37.48 15.469 37.68 C 15.749 37.88 15.978 37.98 16.159 37.98 C 16.518 37.98 16.827 37.828 17.083 37.525 C 17.34 37.222 17.469 36.827 17.469 36.34 C 17.469 35.713 17.313 35.28 16.999 35.04 C 16.685 34.8 16.223 34.68 15.608 34.68 L 15.608 34.52"/>
</svg>
